agir/front/components/genericComponents/logos/action-populaire_mini.svg

<svg width="70" height="67" viewBox="0 0 70 67" fill="none" xmlns="http://www.w3.org/2000/svg">
<path d="M40.3763 67L25.7679 52.3156C17.6999 44.2056 17.6366 31.1203 25.6265 23.0889C33.6164 15.0574 46.6339 15.121 54.7019 23.231C62.77 31.341 62.8333 44.4262 54.8434 52.4577L40.3763 67Z" fill="#F4ED0F"/>
<path fill-rule="evenodd" clip-rule="evenodd" d="M18.4976 41.7717L30.0266 53.3607L41.5556 41.7717C47.9228 35.3713 47.9228 24.9942 41.5556 18.5938C35.1883 12.1934 24.8649 12.1934 18.4976 18.5938C12.1304 24.9942 12.1304 35.3713 18.4976 41.7717ZM30.0266 60.3656L45.0399 45.2742C53.3315 36.9394 53.3315 23.4261 45.0399 15.0914C36.7483 6.75664 23.3049 6.75664 15.0133 15.0914C6.72171 23.4261 6.7217 36.9394 15.0133 45.2742L30.0266 60.3656Z" fill="#000A2C"/>
</svg>

<svg width="70" height="67" fill="none" xmlns="http://www.w3.org/2000/svg"><path d="M40.376 67 25.768 52.316c-8.068-8.11-8.131-21.196-.142-29.227 7.99-8.032 21.008-7.968 29.076.142 8.068 8.11 8.131 21.195.141 29.227L40.376 67Z" fill="#F4ED0F"/><path fill-rule="evenodd" clip-rule="evenodd" d="M18.498 41.772 30.027 53.36l11.529-11.59c6.367-6.4 6.367-16.777 0-23.177-6.368-6.4-16.691-6.4-23.058 0-6.368 6.4-6.368 16.777 0 23.178Zm11.529 18.594L45.04 45.274c8.291-8.335 8.291-21.848 0-30.183-8.292-8.334-21.735-8.334-30.027 0-8.291 8.335-8.291 21.848 0 30.183l15.014 15.092Z" fill="#000A2C"/></svg>
